static/img/kroki/a5edb0d0298e6c6c445de7d3f89d9c72.svg

<?xml version="1.0" encoding="us-ascii" standalone="no"?><svg xmlns="http://www.w3.org/2000/svg" xmlns:xlink="http://www.w3.org/1999/xlink" contentStyleType="text/css" height="374px" preserveAspectRatio="none" style="width:498px;height:374px;" version="1.1" viewBox="0 0 498 374" width="498px" zoomAndPan="magnify"><defs/><g><!--class azure_machine_learning_serverless_endpoint--><g id="elem_azure_machine_learning_serverless_endpoint"><rect codeLine="23" fill="#3D176E" height="39.7891" id="azure_machine_learning_serverless_endpoint" rx="2.5" ry="2.5" style="stroke:#000D19;stroke-width:0.5;" width="422" x="7" y="328.58"/><ellipse cx="22" cy="348.4745" fill="#ADD1B2" rx="11" ry="11" style="stroke:#181818;stroke-width:1.0;"/><path d="M24.9688,354.1152 Q24.3906,354.412 23.75,354.5527 Q23.1094,354.7089 22.4063,354.7089 Q19.9063,354.7089 18.5781,353.0683 Q17.2656,351.412 17.2656,348.287 Q17.2656,345.162 18.5781,343.5058 Q19.9063,341.8495 22.4063,341.8495 Q23.1094,341.8495 23.75,342.0058 Q24.4063,342.162 24.9688,342.4589 L24.9688,345.1777 Q24.3438,344.5995 23.75,344.3339 Q23.1563,344.0527 22.5313,344.0527 Q21.1875,344.0527 20.5,345.1308 Q19.8125,346.1933 19.8125,348.287 Q19.8125,350.3808 20.5,351.4589 Q21.1875,352.5214 22.5313,352.5214 Q23.1563,352.5214 23.75,352.2558 Q24.3438,351.9745 24.9688,351.3964 L24.9688,354.1152 Z " fill="#000000"/><text fill="#D9B8FF" font-family="Helvetica" font-size="17" lengthAdjust="spacing" textLength="380" x="41" y="354.3598">azure_machine_learning_serverless_endpoint</text></g><!--class azure_tracked_resource--><g id="elem_azure_tracked_resource"><rect codeLine="26" fill="#3D176E" height="39.7891" id="azure_tracked_resource" rx="2.5" ry="2.5" style="stroke:#000D19;stroke-width:0.5;" width="239" x="17.5" y="167.79"/><ellipse cx="32.5" cy="187.6845" fill="#ADD1B2" rx="11" ry="11" style="stroke:#181818;stroke-width:1.0;"/><path d="M35.4688,193.3252 Q34.8906,193.622 34.25,193.7627 Q33.6094,193.9189 32.9063,193.9189 Q30.4063,193.9189 29.0781,192.2783 Q27.7656,190.622 27.7656,187.497 Q27.7656,184.372 29.0781,182.7158 Q30.4063,181.0595 32.9063,181.0595 Q33.6094,181.0595 34.25,181.2158 Q34.9063,181.372 35.4688,181.6689 L35.4688,184.3877 Q34.8438,183.8095 34.25,183.5439 Q33.6563,183.2627 33.0313,183.2627 Q31.6875,183.2627 31,184.3408 Q30.3125,185.4033 30.3125,187.497 Q30.3125,189.5908 31,190.6689 Q31.6875,191.7314 33.0313,191.7314 Q33.6563,191.7314 34.25,191.4658 Q34.8438,191.1845 35.4688,190.6064 L35.4688,193.3252 Z " fill="#000000"/><text fill="#D9B8FF" font-family="Helvetica" font-size="17" lengthAdjust="spacing" textLength="197" x="51.5" y="193.5698">azure_tracked_resource</text></g><!--class microsoft_resource--><g id="elem_microsoft_resource"><rect codeLine="29" fill="#3D176E" height="39.7891" id="microsoft_resource" rx="2.5" ry="2.5" style="stroke:#000D19;stroke-width:0.5;" width="200" x="291" y="167.79"/><ellipse cx="306" cy="187.6845" fill="#ADD1B2" rx="11" ry="11" style="stroke:#181818;stroke-width:1.0;"/><path d="M308.9688,193.3252 Q308.3906,193.622 307.75,193.7627 Q307.1094,193.9189 306.4063,193.9189 Q303.9063,193.9189 302.5781,192.2783 Q301.2656,190.622 301.2656,187.497 Q301.2656,184.372 302.5781,182.7158 Q303.9063,181.0595 306.4063,181.0595 Q307.1094,181.0595 307.75,181.2158 Q308.4063,181.372 308.9688,181.6689 L308.9688,184.3877 Q308.3438,183.8095 307.75,183.5439 Q307.1563,183.2627 306.5313,183.2627 Q305.1875,183.2627 304.5,184.3408 Q303.8125,185.4033 303.8125,187.497 Q303.8125,189.5908 304.5,190.6689 Q305.1875,191.7314 306.5313,191.7314 Q307.1563,191.7314 307.75,191.4658 Q308.3438,191.1845 308.9688,190.6064 L308.9688,193.3252 Z " fill="#000000"/><text fill="#D9B8FF" font-family="Helvetica" font-size="17" lengthAdjust="spacing" textLength="158" x="325" y="193.5698">microsoft_resource</text></g><!--class resource--><g id="elem_resource"><rect codeLine="32" fill="#3D176E" height="39.7891" id="resource" rx="2.5" ry="2.5" style="stroke:#000D19;stroke-width:0.5;" width="113" x="334.5" y="7"/><ellipse cx="349.5" cy="26.8945" fill="#ADD1B2" rx="11" ry="11" style="stroke:#181818;stroke-width:1.0;"/><path d="M352.4688,32.5352 Q351.8906,32.832 351.25,32.9727 Q350.6094,33.1289 349.9063,33.1289 Q347.4063,33.1289 346.0781,31.4883 Q344.7656,29.832 344.7656,26.707 Q344.7656,23.582 346.0781,21.9258 Q347.4063,20.2695 349.9063,20.2695 Q350.6094,20.2695 351.25,20.4258 Q351.9063,20.582 352.4688,20.8789 L352.4688,23.5977 Q351.8438,23.0195 351.25,22.7539 Q350.6563,22.4727 350.0313,22.4727 Q348.6875,22.4727 348,23.5508 Q347.3125,24.6133 347.3125,26.707 Q347.3125,28.8008 348,29.8789 Q348.6875,30.9414 350.0313,30.9414 Q350.6563,30.9414 351.25,30.6758 Q351.8438,30.3945 352.4688,29.8164 L352.4688,32.5352 Z " fill="#000000"/><text fill="#D9B8FF" font-family="Helvetica" font-size="17" lengthAdjust="spacing" textLength="71" x="368.5" y="32.7798">resource</text></g><!--reverse link azure_tracked_resource to azure_machine_learning_serverless_endpoint--><g id="link_azure_tracked_resource_azure_machine_learning_serverless_endpoint"><path codeLine="35" d="M154.9499,223.874 C170.5199,254.394 192.6,297.69 208.19,328.25 " fill="none" id="azure_tracked_resource-backto-azure_machine_learning_serverless_endpoint" style="stroke:#FFAF37;stroke-width:2.0;"/><polygon fill="none" points="146.77,207.84,149.6052,226.6006,160.2945,221.1474,146.77,207.84" style="stroke:#FFAF37;stroke-width:2.0;"/></g><!--reverse link microsoft_resource to azure_machine_learning_serverless_endpoint--><g id="link_microsoft_resource_azure_machine_learning_serverless_endpoint"><path codeLine="36" d="M356.8693,220.0119 C323.6193,250.5319 272.24,297.69 238.94,328.25 " fill="none" id="microsoft_resource-backto-azure_machine_learning_serverless_endpoint" style="stroke:#FFAF37;stroke-width:2.0;"/><polygon fill="none" points="370.13,207.84,352.812,215.5917,360.9266,224.4321,370.13,207.84" style="stroke:#FFAF37;stroke-width:2.0;"/></g><!--reverse link resource to microsoft_resource--><g id="link_resource_microsoft_resource"><path codeLine="37" d="M391,65.05 C391,95.57 391,136.9 391,167.46 " fill="none" id="resource-backto-microsoft_resource" style="stroke:#FFAF37;stroke-width:2.0;"/><polygon fill="none" points="391,47.05,385,65.05,397,65.05,391,47.05" style="stroke:#FFAF37;stroke-width:2.0;"/></g><!--SRC=[bP9FQm8n5CJl-oa2dWMjj2hqea9fBr9gxqjC9cxOJRAyP1Lj-zsxrhR4NV_WzSqlC_CUoRG4Wod3bXcO9SWdFjUsvCGDcn2vpSmLZbX7AQu6mwRuv6ou2iov0Nj6iKRGWZU9zqoBtC9xTXT9Koxo5RdAoeDz86vzBS66Y9eLtFj92AINLK1KHewN8wMQPDEqCv3zuGDQc2C9-aLwlPxiZvl8rQYBU_yJ2xq3wyT7cxk0LirMn0zriUMUY4gs5ltJptPyvL9gksBtqUpjq8aiw6Y-oBXqcpsjUE7Z61z0S65ROjRQ2kEHLCEJyCivE17xqp6-gmYfuIBJ5ca1JhPEJpre3IhglvJ2oj9f6zX7admTlQf_aiWXKu9t5Gd4XD62d7Sgd5IFPsVS7Z-xtUuD1PCJcJTxD5wsBPDl]--></g></svg>

<svg xmlns="http://www.w3.org/2000/svg" width="498" height="374" viewBox="0 0 498 374"><rect width="422" height="39.789" x="7" y="328.58" fill="#3D176E" rx="2.5" ry="2.5" style="stroke:#000d19;stroke-width:.5"/><circle cx="22" cy="348.474" r="11" fill="#ADD1B2" style="stroke:#181818;stroke-width:1"/><path d="M24.969 354.115q-.578.297-1.219.438-.64.156-1.344.156-2.5 0-3.828-1.64-1.312-1.657-1.312-4.782t1.312-4.781q1.328-1.656 3.828-1.656.703 0 1.344.156.656.156 1.219.453v2.719q-.625-.579-1.219-.844-.594-.281-1.219-.281-1.343 0-2.031 1.078-.687 1.062-.687 3.156t.687 3.172q.688 1.062 2.031 1.062.625 0 1.219-.265.594-.281 1.219-.86z"/><text x="41" y="354.36" fill="#D9B8FF" font-family="Helvetica" font-size="17" textLength="380">azure_machine_learning_serverless_endpoint</text><rect width="239" height="39.789" x="17.5" y="167.79" fill="#3D176E" rx="2.5" ry="2.5" style="stroke:#000d19;stroke-width:.5"/><circle cx="32.5" cy="187.685" r="11" fill="#ADD1B2" style="stroke:#181818;stroke-width:1"/><path d="M35.469 193.325q-.578.297-1.219.438-.64.156-1.344.156-2.5 0-3.828-1.64-1.312-1.657-1.312-4.782t1.312-4.781q1.328-1.656 3.828-1.656.703 0 1.344.156.656.156 1.219.453v2.719q-.625-.578-1.219-.844-.594-.281-1.219-.281-1.343 0-2.031 1.078-.687 1.062-.687 3.156t.687 3.172q.688 1.062 2.031 1.062.625 0 1.219-.265.594-.281 1.219-.86z"/><text x="51.5" y="193.57" fill="#D9B8FF" font-family="Helvetica" font-size="17" textLength="197">azure_tracked_resource</text><rect width="200" height="39.789" x="291" y="167.79" fill="#3D176E" rx="2.5" ry="2.5" style="stroke:#000d19;stroke-width:.5"/><circle cx="306" cy="187.685" r="11" fill="#ADD1B2" style="stroke:#181818;stroke-width:1"/><path d="M308.969 193.325q-.578.297-1.219.438-.64.156-1.344.156-2.5 0-3.828-1.64-1.312-1.657-1.312-4.782t1.312-4.781q1.328-1.656 3.828-1.656.703 0 1.344.156.656.156 1.219.453v2.719q-.625-.578-1.219-.844-.594-.281-1.219-.281-1.344 0-2.031 1.078-.687 1.062-.687 3.156t.687 3.172q.688 1.062 2.031 1.062.625 0 1.219-.265.594-.281 1.219-.86z"/><text x="325" y="193.57" fill="#D9B8FF" font-family="Helvetica" font-size="17" textLength="158">microsoft_resource</text><rect width="113" height="39.789" x="334.5" y="7" fill="#3D176E" rx="2.5" ry="2.5" style="stroke:#000d19;stroke-width:.5"/><circle cx="349.5" cy="26.895" r="11" fill="#ADD1B2" style="stroke:#181818;stroke-width:1"/><path d="M352.469 32.535q-.578.297-1.219.438-.64.156-1.344.156-2.5 0-3.828-1.64-1.312-1.657-1.312-4.782t1.312-4.781q1.328-1.656 3.828-1.656.703 0 1.344.156.656.156 1.219.453v2.719q-.625-.578-1.219-.844-.594-.281-1.219-.281-1.344 0-2.031 1.078-.687 1.062-.687 3.156t.687 3.172q.688 1.062 2.031 1.062.625 0 1.219-.265.594-.281 1.219-.86z"/><text x="368.5" y="32.78" fill="#D9B8FF" font-family="Helvetica" font-size="17" textLength="71">resource</text><path fill="none" d="M154.95 223.874c15.57 30.52 37.65 73.816 53.24 104.376m-61.42-120.41 2.835 18.76 10.69-5.453z" style="stroke:#ffaf37;stroke-width:2"/><g fill="none"><path d="M356.87 220.012c-33.25 30.52-84.63 77.678-117.93 108.238" style="stroke:#ffaf37;stroke-width:2"/><path d="m370.13 207.84-17.318 7.752 8.115 8.84z" style="stroke:#ffaf37;stroke-width:2"/></g><path fill="none" d="M391 65.05v102.41m0-120.41-6 18h12z" style="stroke:#ffaf37;stroke-width:2"/></svg>
